X:95
T: Énekeljünk, énekeljünk
O: Klézse (Bákó), 1930
Q:1/4=152
M:4/4
L:1/4
K:Ab
BcBc | cBBA | 
c(c/A/) B (B/A/) | AFFF | 
A>F FE | ABcA | 
c (c/A/) B (B/A/) | AFFF  | 

